!! 00005] TT[TB
!! Eigene Aufnahme
!!!OTL: Shang Sichuan
!!!ARE: Asia, China,Hunan, Sangzhi (Westen N„he v. Sichuan und Guizhou)
!! Ethnic Group: Han
!! I, 538
!!!SCT: C0123
!!!YEM: Copyright 1995, estate of Helmut Schaffrath.
**kern
*ICvox
*Ivox
*M2/4
*k[f#]
*G:
{8g
16g
16g
8e
8g
=1
16d
16e
4g
8a}
=2
{8a
8dd
16b
16dd
8b
=3
8.a
16b
4g}
=4
{8b
8b
4a
=5
8a
16g
16e
4e}
=6
{8g
8b
16a
16g
8e
=7
16d
16e
4g
8a}
=8
{8b
16a
16g
16g
16g
8e
=9
2d}
=10
{8g
8b
16a
16g
8e
=11
16d
16e
4g
8a}
=12
{8b
16a
16g
16g
16g
8e
=13
2d}
==
!!!AGN: Xiaodiao; Hausarbeit, Salz reinigen; Abschiedslied
!! Neues Volkslied, 12-Monatslied. Waehrend die Maenner Salz nach
!!    Sichuan transportieren, singen die Frauen das Lied zu Hause. Der
!!    Name eines beruehmten Volkssaengers, der dieses Lied aufgeschrieben
!!    hat, ist am Ende angegeben. *) Saengerin singt 1.,4. Strophe
!!    dann 4. nochmals. Frau Huang hat dieses Lied von jenem Saenger
!!    gelernt, singt es aber anders!! VARIANTE
!!    Saengerin: Huang Bai.  *) Dai Fuxiang
!!    Vereinzelt Verzierungen. In Phrase 4 und 6 eine Punktierung
!!    hinzugefuegt.
!!!ONB: ESAC (Essen Associative Code) Database: CHINA_070
!!!AMT: simple duple
!!!AIN: vox
!!!EED: Helmut Schaffrath
!!!EEV: 1.0
*-
